X: 1
T: Peacocks At Clennell Hall, The
M: 4/4
L: 1/8
R: hornpipe
K: Fmaj
|:(3cde|fAcf eGce|dDFB cCFA|GAG^F Gag=f|(3efe d=B (3cdc (3_BAG|
FA,CF ACFA|c^cdb a=cBg|fA (3cBA GCEG|F2A2 F2:|
|:GF|EGcd egfe|fd=Bd Gag^f|gG=fG eGdG|cEGB ACEG|
FA,CF ACFA|c^cdb a=cBg|fA (3cBA GCEG|F2A2 F2:|
